!!!COM: Palestrina, Giovanni Perluigi da
!!!OPR: L'homme arme (1582)
!!!OTL: Kyrie
**kern	**kern	**kern	**kern
*Ibass	*Itenor	*Icalto	*Icant
!Bassus	!Tenor	!Altus	!Cantus
*clefF4	*clefGv2	*clefG2	*clefG2
*k[]	*k[]	*k[]	*k[]
*D:dor	*D:dor	*D:dor	*D:dor
*M4/2	*M4/2	*M4/2	*M4/2
=1	=1	=1	=1
0r	1D	1.A	1r
.	1D	.	1d
.	.	2A	.
=2	=2	=2	=2
0r	2.G	4B	1d
.	.	4A	.
.	.	4B	.
.	4A	4c	.
.	2B	2d	[1g
.	2c	2e	.
=3	=3	=3	=3
0r	2B	2d	2g]
.	2c	2.e	2g
.	1d	.	1f
.	.	4d	.
.	.	[2d	.
=4	=4	=4	=4
1r	1A	2d]	1e
.	.	2c#	.
1D	2r	2.d	[1d
.	[2A	.	.
.	.	4e	.
=5	=5	=5	=5
1D	2A]	1f#	0d]
.	2A	.	.
[1G	2.B	1g	.
.	4c	.	.
=6	=6	=6	=6
2G]	2d	0r	0r
2G	2.e	.	.
1F	.	.	.
.	4d	.	.
.	[2d	.	.
=7	=7	=7	=7
1E	2d]	2r	1r
.	2c#	2g	.
1D	2d	2f	1a
.	2d	2d	.
=8	=8	=8	=8
0r	2c	2e	1a
.	2A	1f	.
.	1B-	.	1d
.	.	4e	.
.	.	4d	.
=9	=9	=9	=9
0r	2.A	2c	1.a
.	.	4A	.
.	4G	4B	.
.	2F	4c	.
.	.	4d	.
.	2C	[2e	2g
=10	=10	=10	=10
1A	1D	4e]	1f
.	.	4d	.
.	.	1d	.
1A	1r	.	1e
.	.	2c	.
=11	=11	=11	=11
1D	0r	1f	2d
.	.	.	2dd
[1A	.	2e	2cc
.	.	4c	2a
.	.	4d	.
=12	=12	=12	=12
2A]	0r	4e	2cc
.	.	4c	.
2G	.	2.d	2.b
1F	.	.	.
.	.	4c	4a
.	.	2A	[2a
=13	=13	=13	=13
1E	1r	2.B	2a]
.	.	.	2g
.	.	4c	.
2D	1A	1d	2f
2D	.	.	2d
=14	=14	=14	=14
2C	1A	1r	2e
2AA	.	.	1f
1BB-	1D	1d	.
.	.	.	4e
.	.	.	4d
=15	=15	=15	=15
[0AA	1.A	2c	0e
.	.	4A	.
.	.	4B	.
.	.	4c	.
.	.	4d	.
.	2G	[2e	.
=16	=16	=16	=16
0AA]	1F	2e]	0a
.	.	1d	.
.	1E	.	.
.	.	2c#	.
=17	=17	=17	=17
0D	0D	0d	0f#
=18	=18	=18	=18
2r	0r	2.A	1r
1A	.	.	.
.	.	4B	.
.	.	4c	2.e
.	.	4d	.
2A	.	[2e	.
.	.	.	4f#
=19	=19	=19	=19
1G	0r	2e]	4g
.	.	.	4a
.	.	2d	1b
2G	.	2g	.
[2A	.	2f	2a
=20	=20	=20	=20
2A]	0r	1.e	1.cc
2A	.	.	.
[1E	.	.	.
.	.	4d	4b
.	.	4c	4a
=21	=21	=21	=21
0E]	0r	2B	2g#
.	.	2A	1a
.	.	2.B	.
.	.	.	2g
.	.	4c#	.
=22	=22	=22	=22
2r	2r	1d	0f
2.D	1d	.	.
.	.	1A	.
4E	.	.	.
4F	2d	.	.
4G	.	.	.
=23	=23	=23	=23
1.A	1c	2r	1e
.	.	2e	.
.	2c	2e	2r
2D	[2d	2f#	2a
=24	=24	=24	=24
1G	2d]	1g	2b
.	2d	.	2b
2.F	1A	1c	4cc
.	.	.	4b
.	.	.	4a
4E	.	.	4g
=25	=25	=25	=25
1D	2r	2.d	2.f
.	1d	.	.
.	.	8c	8e
.	.	8B	8d
1D	.	2A	2.f
.	2d	2f	.
.	.	.	4g
=26	=26	=26	=26
1AA	1c	2.e	0a
.	.	4d	.
1r	2c	2e	.
.	[2d	[2f	.
=27	=27	=27	=27
1r	2d]	4f]	1f
.	.	4e	.
.	2d	1d	.
2r	1A	.	1e
2A	.	2c	.
=28	=28	=28	=28
2G	1d	2B	2r
2F#	.	2A	2a
1G	1d	2G	2b
.	.	[2g	2b
=29	=29	=29	=29
1.C	1.e	4g]	2.cc
.	.	4f	.
.	.	4e	.
.	.	4d	4b
.	.	4c	4a
.	.	4B	4g
2D	2d	2A	2f#
=30	=30	=30	=30
0E	1c	0e	2g#
.	.	.	1a
.	1B	.	.
.	.	.	2g#
=31	=31	=31	=31
0AA	0A	0e	0a
=32	=32	=32	=32
0r	1A	0e	0r
.	2G#	.	.
.	[2A	.	.
=33	=33	=33	=33
1A	4A]	0e	0r
.	4B	.	.
.	4c	.	.
.	4A	.	.
2G#	2B	.	.
[2A	[2c	.	.
=34	=34	=34	=34
4A]	4c]	0A	1r
4G	4B	.	.
4F	2c	.	.
4E	.	.	.
1F	4d	.	1a
.	4c	.	.
.	4c	.	.
.	8B	.	.
.	8A	.	.
=35	=35	=35	=35
2E	2B	0e	2g#
2AA	2A	.	2.a
1AA	2r	.	.
.	.	.	4b
.	2A	.	4cc
.	.	.	4a
=36	=36	=36	=36
0r	2G#	0e	2b
.	2.A	.	2.cc
.	4B	.	4b
.	4c	.	[2a
.	4A	.	.
=37	=37	=37	=37
1r	2B	0d	2a]
.	2B	.	2g
1D	1A	.	1f
=38	=38	=38	=38
2AA	2r	0c	1e
2AA	2A	.	.
2.C	2E	.	1r
.	2E	.	.
4D	.	.	.
=39	=39	=39	=39
4E	2.G	0B	1g
4F	.	.	.
1G	.	.	.
.	4A	.	.
.	4B	.	2d
.	4c	.	.
2GG	[2d	.	2d
=40	=40	=40	=40
1D	4d]	0A	2.f
.	4c	.	.
.	4A	.	.
.	4B	.	4g
2AA	1c	.	4a
.	.	.	4b
2AA	.	.	[2cc
=41	=41	=41	=41
2.C	2G	0e	4cc]
.	.	.	4b
.	1c	.	2.g
4D	.	.	.
4E	.	.	.
4F	.	.	4a
2G	2B	.	[2b
=42	=42	=42	=42
1A	2.c	0e	2b]
.	.	.	1a
.	4A	.	.
1E	2B	.	.
.	[2c	.	2g
=43	=43	=43	=43
2F	2c]	0d	2a
2G	2B	.	2.g
1D	[1A	.	.
.	.	.	4f
.	.	.	2f
=44	=44	=44	=44
0AA	2A]	0c	0e
.	4G	.	.
.	4F	.	.
.	2E	.	.
.	[2A	.	.
=45	=45	=45	=45
0E	2A]	0B	2r
.	4G	.	2b
.	4F#	.	.
.	1G#	.	2b
.	.	.	2b
=46	=46	=46	=46
1AA	2A	[0A	4cc
.	.	.	4b
.	4c	.	4a
.	4B	.	4g
1D	4A	.	4f
.	4G	.	4e
.	4F	.	[2f
.	4E	.	.
=47	=47	=47	=47
2D	2.F	0A]	4f]
.	.	.	4e
2D	.	.	1d
.	4D	.	.
1AA	1E	.	.
.	.	.	2c#
=48	=48	=48	=48
[0D	[0D	[0A	[0d
=49	=49	=49	=49
0D]	0D]	0A]	0d]
==	==	==	==
*-	*-	*-	*-
!!!CDT: 1525/^1526/-1594/2/2
!!!OCY: Italia
!!!AGN: Mass (Paraphrase)
!!!AST: renaissance, vocal
!!!ASW: Popular Song
!!!PWK: Masses, Book 4
!!!RNB: Cadence finals: A
!!!YOR: Le Opere Complete, v. 10, p. 60
!!!YOO: Rome, Italy: Fratelli Scalera
!!!END: 1992//
!!!EED: John Miller
!!!YEC: Copyright 2000, John Miller
!!!YEN: United States of America
!!!YEM: Rights to all derivative electronic formats reserved.
!!!YEM: Refer to licensing agreement for further details.
!!!YEM: This file must be accompanied by the licensing agreement.
!!!YEM: A copy of the licensing agreement may be found at http://www.music-cog.ohio-state.edu/HumdrumDatabases/Palestrina/license.txt
!!!EMD: converted to Humdrum by Bret Aarden
